static/image/notification-banner-icon-left.svg

<svg width="238" height="100" viewBox="0 0 238 100" fill="none" xmlns="http://www.w3.org/2000/svg">
<path d="M0 0H183L238 100H0V0Z" fill="#E98024"/>
<g opacity="0.32">
<path d="M49.4182 2.58143C48.663 1.82628 47.7008 1.31204 46.6533 1.10372C45.6059 0.895406 44.5202 1.00238 43.5335 1.41111C42.5468 1.81984 41.7035 2.51197 41.1102 3.39998C40.5168 4.28799 40.2002 5.33201 40.2002 6.4C40.2002 7.468 40.5168 8.51201 41.1102 9.40002C41.7035 10.288 42.5468 10.9802 43.5335 11.3889C44.5202 11.7976 45.6059 11.9046 46.6533 11.6963C47.7008 11.488 48.663 10.9737 49.4182 10.2186C49.9197 9.71713 50.3175 9.12181 50.5889 8.46662C50.8603 7.81143 51 7.10919 51 6.4C51 5.69082 50.8603 4.98858 50.5889 4.33338C50.3175 3.67819 49.9197 3.08287 49.4182 2.58143ZM48.5234 8.31122L47.5109 9.32372L45.5997 7.4125L43.6885 9.32372L42.676 8.31122L44.5872 6.4L42.676 4.48879L43.6885 3.47629L45.5997 5.3875L47.5109 3.47629L48.5234 4.48879L46.6122 6.4L48.5234 8.31122Z" fill="white"/>
<path d="M40.6356 11.3641C39.9838 10.7124 39.467 9.93844 39.1149 9.08659C38.7628 8.23474 38.5822 7.32176 38.5836 6.4H27.24C26.3807 6.4 25.5566 6.74136 24.949 7.34897C24.3414 7.95659 24 8.7807 24 9.64V24.76C24 25.6193 24.3414 26.4434 24.949 27.051C25.5566 27.6586 26.3807 28 27.24 28H42.3597C43.219 28 44.0431 27.6586 44.6507 27.051C45.2583 26.4434 45.5997 25.6193 45.5997 24.76V13.4161C44.6779 13.4176 43.765 13.237 42.9131 12.8849C42.0613 12.5328 41.2873 12.016 40.6356 11.3641ZM31.0199 9.4105C31.3937 9.4105 31.7591 9.52135 32.0699 9.72902C32.3807 9.9367 32.623 10.2319 32.766 10.5772C32.9091 10.9226 32.9465 11.3026 32.8736 11.6692C32.8006 12.0358 32.6206 12.3726 32.3563 12.6369C32.092 12.9013 31.7552 13.0813 31.3886 13.1542C31.022 13.2271 30.642 13.1897 30.2966 13.0466C29.9513 12.9036 29.6561 12.6613 29.4484 12.3505C29.2408 12.0397 29.1299 11.6743 29.1299 11.3005C29.1299 10.7992 29.329 10.3185 29.6835 9.96407C30.0379 9.60962 30.5186 9.4105 31.0199 9.4105ZM27.24 16.2145C27.2397 15.9166 27.2982 15.6216 27.4121 15.3463C27.526 15.071 27.693 14.8209 27.9037 14.6102C28.1143 14.3996 28.3644 14.2325 28.6397 14.1186C28.915 14.0047 29.21 13.9462 29.5079 13.9465H32.5319C33.1334 13.9465 33.7102 14.1854 34.1356 14.6108C34.5609 15.0361 34.7998 15.613 34.7998 16.2145V16.9705H27.24V16.2145ZM42.3597 24.3145H27.24V22.9645H42.3597V24.3145ZM42.3597 21.0745H27.24V19.7071H42.3597V21.0745Z" fill="white"/>
</g>
<g opacity="0.32">
<path d="M111.954 36.28V20.6H62.6724C59.5767 20.6 56.6078 21.839 54.4188 24.0444C52.2298 26.2499 51 29.2411 51 32.36V87.24C51 90.3589 52.2298 93.3501 54.4188 95.5556C56.6078 97.761 59.5767 99 62.6724 99H117.144C120.239 99 123.208 97.761 125.397 95.5556C127.586 93.3501 128.816 90.3589 128.816 87.24V44.12H119.735C117.672 44.1181 115.694 43.2916 114.235 41.8217C112.776 40.3518 111.955 38.3587 111.954 36.28ZM76.2902 31.52C77.6369 31.52 78.9533 31.9223 80.073 32.6761C81.1927 33.4299 82.0655 34.5013 82.5808 35.7548C83.0962 37.0083 83.231 38.3876 82.9683 39.7183C82.7056 41.049 82.0571 42.2714 81.1048 43.2308C80.1526 44.1901 78.9394 44.8435 77.6186 45.1082C76.2978 45.3729 74.9287 45.237 73.6846 44.7178C72.4404 44.1986 71.377 43.3193 70.6288 42.1912C69.8806 41.0631 69.4813 39.7368 69.4813 38.38C69.4813 36.5606 70.1987 34.8157 71.4756 33.5292C72.7525 32.2427 74.4844 31.52 76.2902 31.52ZM62.6724 56.223C62.6715 55.1417 62.8822 54.0708 63.2925 53.0717C63.7028 52.0725 64.3046 51.1646 65.0635 50.4C65.8224 49.6354 66.7235 49.0291 67.7152 48.6157C68.7069 48.2024 69.7698 47.9901 70.8431 47.991H81.7373C83.9043 47.991 85.9826 48.8583 87.5149 50.4021C89.0472 51.9459 89.908 54.0397 89.908 56.223V58.96H62.6724V56.223ZM117.144 85.623H62.6724V80.723H117.144V85.623ZM117.144 73.863H62.6724V68.9H117.144V73.863Z" fill="white"/>
<path d="M115.844 35.846C115.848 37.0008 116.305 38.1072 117.117 38.9231C117.928 39.7391 119.027 40.1982 120.173 40.2H137.459C138.605 40.1982 139.704 39.7391 140.515 38.9231C141.327 38.1072 141.784 37.0008 141.788 35.846V9.708H115.844V35.846ZM120.173 14.062H137.459V35.846H120.173V14.062Z" fill="white"/>
<path d="M136.382 3.177L134.221 1H123.411L121.25 3.177H113.684V7.531H143.948V3.177H136.382Z" fill="white"/>
<path d="M127.392 17.023H123.362V32.885H127.392V17.023Z" fill="white"/>
<path d="M134.27 17.023H130.24V32.885H134.27V17.023Z" fill="white"/>
</g>
<g opacity="0.32">
<path d="M155.159 77.3983C156.305 77.3983 157.426 77.0641 158.379 76.4378C159.332 75.8116 160.075 74.9215 160.514 73.8801C160.952 72.8388 161.067 71.6928 160.844 70.5873C160.62 69.4818 160.068 68.4663 159.257 67.6692C158.447 66.8722 157.414 66.3294 156.29 66.1095C155.166 65.8896 154 66.0025 152.941 66.4338C151.882 66.8652 150.977 67.5957 150.34 68.5329C149.703 69.4701 149.363 70.572 149.363 71.6992C149.364 73.2103 149.976 74.6592 151.062 75.7277C152.149 76.7962 153.622 77.3971 155.159 77.3983ZM155.159 68.5903C155.785 68.5899 156.397 68.772 156.918 69.1137C157.439 69.4554 157.844 69.9412 158.084 70.5098C158.324 71.0784 158.387 71.7042 158.265 72.3079C158.143 72.9116 157.841 73.4662 157.399 73.9015C156.956 74.3367 156.392 74.6331 155.778 74.7531C155.164 74.873 154.528 74.8112 153.95 74.5754C153.371 74.3397 152.877 73.9405 152.53 73.4285C152.182 72.9165 151.997 72.3147 151.998 71.6992C152 70.8758 152.334 70.087 152.927 69.5053C153.519 68.9236 154.322 68.5963 155.159 68.595V68.5903Z" fill="white"/>
<path d="M146.585 89.9421V85.7562C146.589 84.6436 147.04 83.5777 147.841 82.7912C148.641 82.0047 149.725 81.5615 150.857 81.5584H159.459C160.363 81.5571 161.244 81.8386 161.974 82.3621C162.965 82.0281 164.006 81.8569 165.054 81.8554H165.109C164.473 80.9628 163.627 80.2341 162.644 79.7311C161.66 79.2281 160.568 78.9656 159.459 78.9657H150.857C149.025 78.9676 147.27 79.6835 145.975 80.9565C144.68 82.2295 143.951 83.9556 143.948 85.7562V92.5301H155.612C155.477 91.671 155.477 90.7966 155.612 89.9374L146.585 89.9421Z" fill="white"/>
<path d="M170.636 85.7467C169.532 84.6608 168.125 83.9212 166.594 83.6215C165.062 83.3219 163.474 83.4755 162.032 84.0631C160.589 84.6507 159.356 85.6458 158.488 86.9226C157.62 88.1994 157.157 89.7005 157.157 91.2361C157.157 92.7717 157.62 94.2729 158.488 95.5496C159.356 96.8264 160.589 97.8216 162.032 98.4091C163.474 98.9967 165.062 99.1504 166.594 98.8507C168.125 98.551 169.532 97.8115 170.636 96.7255C172.117 95.2696 172.948 93.295 172.948 91.2361C172.948 89.1773 172.117 87.2027 170.636 85.7467ZM169.33 93.9961L167.849 95.4528L165.054 92.6927L162.259 95.441L160.778 93.9844L163.572 91.2361L160.778 88.4879L162.259 87.0313L165.054 89.7795L167.849 87.0313L169.33 88.4879L166.535 91.2361L169.33 93.9961Z" fill="white"/>
</g>
</svg>

<svg width="238" height="100" fill="none" xmlns="http://www.w3.org/2000/svg"><path d="M0 0h183l55 100H0V0z" fill="#E98024"/><g opacity=".32" fill="#fff"><path d="M49.418 2.581a5.4 5.4 0 10-7.636 7.637 5.4 5.4 0 007.636-7.637zm-.895 5.73l-1.012 1.013L45.6 7.412l-1.912 1.912-1.012-1.013L44.587 6.4l-1.911-1.911 1.012-1.013L45.6 5.388l1.91-1.912 1.013 1.013-1.91 1.911 1.91 1.911z"/><path d="M40.636 11.364A7.004 7.004 0 0138.584 6.4H27.24A3.24 3.24 0 0024 9.64v15.12A3.24 3.24 0 0027.24 28h15.12a3.24 3.24 0 003.24-3.24V13.416a7.003 7.003 0 01-4.964-2.052zM31.02 9.41a1.89 1.89 0 110 3.78 1.89 1.89 0 010-3.78zm-3.78 6.805a2.265 2.265 0 012.268-2.268h3.024a2.268 2.268 0 012.268 2.268v.756h-7.56v-.756zm15.12 8.1H27.24v-1.35h15.12v1.35zm0-3.24H27.24v-1.368h15.12v1.367z"/></g><g opacity=".32" fill="#fff"><path d="M111.954 36.28V20.6H62.672a11.629 11.629 0 00-8.253 3.444A11.805 11.805 0 0051 32.36v54.88c0 3.119 1.23 6.11 3.419 8.316A11.629 11.629 0 0062.672 99h54.472c3.095 0 6.064-1.239 8.253-3.444a11.805 11.805 0 003.419-8.316V44.12h-9.081a7.759 7.759 0 01-5.5-2.298 7.873 7.873 0 01-2.281-5.542zM76.29 31.52c1.347 0 2.663.402 3.783 1.156a6.85 6.85 0 012.508 3.079 6.908 6.908 0 01.387 3.963 6.876 6.876 0 01-1.863 3.513 6.794 6.794 0 01-3.486 1.877 6.762 6.762 0 01-3.934-.39 6.82 6.82 0 01-3.056-2.527 6.896 6.896 0 01.847-8.662 6.783 6.783 0 014.814-2.009zM62.672 56.223c0-1.081.21-2.152.62-3.151a8.23 8.23 0 011.772-2.672 8.16 8.16 0 012.651-1.784 8.112 8.112 0 013.128-.625h10.894a8.14 8.14 0 015.778 2.411 8.263 8.263 0 012.393 5.821v2.737H62.672v-2.737zm54.472 29.4H62.672v-4.9h54.472v4.9zm0-11.76H62.672V68.9h54.472v4.963z"/><path d="M115.844 35.846a4.383 4.383 0 001.273 3.077 4.318 4.318 0 003.056 1.277h17.286a4.318 4.318 0 003.056-1.277 4.383 4.383 0 001.273-3.077V9.708h-25.944v26.138zm4.329-21.784h17.286v21.784h-17.286V14.062zM136.382 3.177L134.221 1h-10.81l-2.161 2.177h-7.566v4.354h30.264V3.177h-7.566z"/><path d="M127.392 17.023h-4.03v15.862h4.03V17.023zM134.27 17.023h-4.03v15.862h4.03V17.023z"/></g><g opacity=".32" fill="#fff"><path d="M155.159 77.398a5.866 5.866 0 003.22-.96 5.724 5.724 0 002.135-2.558 5.621 5.621 0 00-1.257-6.21 5.824 5.824 0 00-2.967-1.56 5.889 5.889 0 00-3.349.324 5.777 5.777 0 00-2.601 2.099 5.63 5.63 0 00-.977 3.166 5.658 5.658 0 001.699 4.029 5.851 5.851 0 004.097 1.67zm0-8.808c.626 0 1.238.182 1.759.524.521.341.926.827 1.166 1.396.24.568.303 1.194.181 1.798a3.1 3.1 0 01-.866 1.593 3.184 3.184 0 01-1.621.852c-.614.12-1.25.058-1.828-.178a3.146 3.146 0 01-1.42-1.147 3.066 3.066 0 01.397-3.923 3.193 3.193 0 012.232-.91v-.005zM146.585 89.942v-4.186a4.175 4.175 0 011.256-2.965 4.319 4.319 0 013.016-1.233h8.602a4.307 4.307 0 012.515.804 9.69 9.69 0 013.08-.507h.055a6.864 6.864 0 00-2.465-2.124 6.997 6.997 0 00-3.185-.765h-8.602a6.974 6.974 0 00-4.882 1.99 6.746 6.746 0 00-2.027 4.8v6.774h11.664a8.35 8.35 0 010-2.593l-9.027.005z"/><path d="M170.636 85.747a7.938 7.938 0 00-4.042-2.126 8.02 8.02 0 00-4.562.442 7.87 7.87 0 00-3.544 2.86 7.67 7.67 0 00-1.331 4.313 7.67 7.67 0 001.331 4.314 7.87 7.87 0 003.544 2.86 8.019 8.019 0 004.562.44 7.937 7.937 0 004.042-2.124 7.696 7.696 0 002.312-5.49 7.696 7.696 0 00-2.312-5.49zm-1.306 8.25l-1.481 1.456-2.795-2.76-2.795 2.748-1.481-1.457 2.794-2.748-2.794-2.748 1.481-1.457 2.795 2.748 2.795-2.748 1.481 1.457-2.795 2.748 2.795 2.76z"/></g></svg>
